StripePaymentsUI/StripePaymentsUI/Resources/StripePaymentsUI.xcassets/CardsNoPadding/stp_card_unpadded_unionpay.imageset/stp_card_unpadded_unionpay.svg

<svg fill="none" height="16" viewBox="0 0 24 16" width="24" xmlns="http://www.w3.org/2000/svg"><path d="m4.70006.00006104h5.99034c.8361 0 1.3562.72639596 1.1612 1.62053896l-2.78895 12.7614c-.19682.891-1.03403 1.6181-1.87081 1.6181h-5.98971c-.835027 0-1.356278-.7271-1.1612101-1.6181l2.7900801-12.7614c.19507-.894143 1.03184-1.62053896 1.86906-1.62053896z" fill="#dd2423"/><path d="m10.192.00006104h6.8887c.836 0 .459.72639596.2624 1.62053896l-2.7885 12.7614c-.1957.891-.1346 1.6181-.9724 1.6181h-6.88872c-.8378 0-1.35628-.7271-1.15946-1.6181l2.78833-12.7614c.19799-.894143 1.03301-1.62053896 1.86965-1.62053896z" fill="#16315e"/><path d="m16.8074.00006104h5.9903c.8374 0 1.3575.72639596 1.1608 1.62053896l-2.7885 12.7614c-.1968.891-1.0346 1.6181-1.8718 1.6181h-5.9875c-.8378 0-1.3575-.7271-1.1612-1.6181l2.7889-12.7614c.195-.894143 1.0312-1.62053896 1.869-1.62053896z" fill="#036862"/><path d="m6.26455 4.08973c-.61601.00669-.79794 0-.85605-.01463-.02234.11313-.43803 2.15678-.4392 2.1585-.0895.41346-.15462.70818-.37582.8985-.12557.11064-.27216.16401-.44212.16401-.27318 0-.43233-.14456-.45905-.41875l-.00511-.09414s.08323-.55383.08323-.55694c0 0 .43627-1.86236.51439-2.10854.00408-.014.00525-.02132.00627-.02801-.84918.00794-.99972 0-1.01008-.01463-.0057.02008-.02672.13554-.02672.13554l-.44548 2.09905-.03825.17802-.07403.5823c0 .17273.03183.31371.0952.43291.20295.37798.78188.43462 1.10938.43462.42196 0 .81779-.09554 1.08528-.26998.46431-.2924.58578-.74943.69412-1.15558l.05023-.20836s.44941-1.93425.52578-2.18588c.00292-.014.00409-.02132.00803-.02801zm1.5291 1.56038c-.10834 0-.30632.02801-.48416.12091-.06454.03533-.12557.0761-.18996.11671l.05811-.22361-.03183-.03766c-.37714.08139-.46153.09228-.80991.14456l-.0292.0207c-.04044.35744-.07636.62618-.22631 1.32877-.05709.25894-.11637.52036-.1758.77868l.01606.03283c.357-.02007.46533-.02007.7756-.01462l.02512-.0291c.03942-.21521.04453-.26563.13184-.7015.04103-.20665.12659-.66073.16879-.82241.07753-.03828.15404-.07594.22704-.07594.1739 0 .15273.16168.14601.22611-.00745.10815-.07081.46139-.13579.76467l-.04336.19576c-.03023.14457-.06337.28508-.0936.4284l.01315.02863c.35188-.02007.45919-.02007.75968-.01462l.03533-.0291c.05432-.33612.07023-.42607.1666-.91547l.04847-.22486c.09418-.44007.14149-.66321.07023-.84497-.07534-.20369-.25609-.25287-.42211-.25287zm1.70819.46075c-.18704.03828-.30633.0638-.42489.0803-.11753.02007-.23215.03828-.41291.06505l-.01431.01385-.01314.01104c-.01883.14348-.03198.2675-.05694.41331-.02117.15079-.05373.32211-.10674.56829-.04102.18845-.0622.25412-.08556.32041-.02277.06629-.04789.13071-.09403.31604l.01081.01712.00905.01572c.16893-.00856.27946-.01463.39306-.01572.11344-.00436.23098 0 .41291.00109l.01591-.01385.01709-.01525c.02628-.16713.03022-.2121.04628-.29364.01592-.08745.04337-.20852.11068-.53188.03183-.15188.06731-.30329.1003-.45828.03432-.15436.07023-.30639.1044-.45827l-.00511-.01836zm.00398-.62123c-.16995-.1069-.46825-.07298-.66901.07469-.20018.14472-.22295.35013-.05358.45844.16703.10395.46649.07298.6655-.07594.19974-.14783.22471-.35137.05709-.45719zm1.02788 2.47586c.3438 0 .6963-.10099.9616-.4007.2041-.24306.2977-.60471.3301-.75363.1056-.4936.0234-.72406-.0799-.86442-.1568-.21397-.4339-.28259-.7214-.28259-.1729 0-.5846.01821-.9063.33425-.23097.22797-.3377.53733-.40209.83393-.06497.30219-.13973.84621.32969 1.04866.1448.0663.3536.0845.4883.0845zm-.0269-1.1106c.0793-.37378.1729-.68749.4117-.68749.1872 0 .2008.23342.1176.60844-.0149.08325-.0833.39276-.1757.52457-.0645.09725-.1409.15623-.2253.15623-.0251 0-.1745 0-.1768-.23637-.0012-.11671.0212-.23591.0485-.36538zm2.1781 1.06253.0269-.0291c.0381-.21521.0444-.26578.1288-.70149.0422-.20666.1295-.66073.1705-.82241.0777-.03844.1529-.0761.2282-.0761.1728 0 .1517.16168.1449.22611-.0063.1083-.0697.46139-.1358.76467l-.041.19576c-.0314.14472-.0656.28508-.0958.42856l.0131.02863c.3531-.02007.4563-.02007.7585-.01463l.0365-.0291c.053-.33627.0673-.42622.1666-.91546l.0473-.22501c.0947-.44007.1425-.66307.0725-.84482-.0776-.2037-.2595-.25287-.4232-.25287-.1085 0-.3075.02785-.4843.12091-.0632.03532-.1266.07594-.1888.11671l.0542-.22361-.0291-.03782c-.377.08154-.4631.09244-.811.14472l-.0268.0207c-.0422.35744-.0765.62602-.2264 1.32877-.0571.25893-.1164.52036-.1757.77868l.016.03283c.3575-.02007.4643-.02007.7739-.01463zm2.594.01455c.0222-.11546.154-.79984.1552-.79984 0 0 .1123-.50216.1191-.52037 0 0 .0353-.05228.0707-.07298h.052c.4904 0 1.0442 0 1.4783-.34032.2954-.23342.4973-.5781.5874-.99701.0234-.1027.0406-.22486.0406-.34701 0-.16044-.0302-.31916-.1176-.44318-.2213-.33006-.6621-.33612-1.1709-.33861-.0017 0-.2509.00249-.2509.00249-.6513.00855-.9125.00606-1.0199-.00794-.009.05057-.0261.14052-.0261.14052s-.2333 1.15246-.2333 1.15432c0 0-.5584 2.45027-.5846 2.56573.5687-.00731.8018-.00731.9.0042zm.4323-2.04723s.2481-1.15012.2469-1.14576l.008-.05898.0035-.04497.0992.01089s.5116.04684.5236.04808c.2019.08326.2851.29784.227.57795-.053.25598-.2088.47119-.409.57514-.1648.08807-.3667.09539-.5748.09539h-.1346zm1.5445.99145c-.0655.29784-.1409.84186.3262 1.03576.1489.06753.2824.08761.418.08029.1433-.00825.276-.08481.3989-.19498-.0111.04528-.0222.09057-.0333.136l.0212.0291c.336-.01509.4402-.01509.8042-.01213l.033-.02677c.0532-.33301.1033-.65637.2414-1.29344.0673-.30516.1345-.60736.2035-.91127l-.0108-.03345c-.3758.07422-.4763.0901-.8378.14472l-.0274.0238c-.0037.03097-.0075.06069-.011.09042-.0562-.0968-.1377-.17942-.2634-.23093-.1607-.06738-.5383.01945-.8629.33441-.2281.22486-.3376.53297-.3998.82847zm.7894.01821c.0804-.36709.1728-.67769.4123-.67769.1514 0 .2311.14892.2149.40288-.0128.06333-.0267.13009-.0432.20556-.024.10909-.0499.21724-.0752.32554-.0257.07407-.0556.14394-.0885.19047-.0616.09306-.2082.15079-.2926.15079-.0239 0-.1717 0-.1768-.23217-.0012-.11562.0212-.23467.0491-.36538zm4.1219-1.21208-.0291-.03532c-.3719.0803-.4392.09306-.7809.14223l-.0251.02677c-.0011.00435-.0022.01104-.0039.01711l-.0012-.00607c-.2543.62541-.2469.49049-.4539.98285-.0012-.02241-.0012-.03642-.0024-.06022l-.0518-1.06735-.0325-.03532c-.3896.0803-.3988.09306-.7586.14223l-.028.02677c-.0039.01276-.0039.02676-.0063.04201l.0024.00545c.0449.24493.0341.19031.0792.57685.0211.18969.0491.38047.0701.56783.0355.31356.0554.46792.0987.94643-.2429.42731-.3005.58899-.5344.96401l.0016.00374-.1647.27761c-.0188.02925-.0359.04933-.0598.05789-.0263.01385-.0605.01634-.1079.01634h-.0913l-.1356.48084.4653.00855c.2732-.00124.4449-.1374.5373-.3204l.2926-.53437h-.0046l.0308-.03766c.1968-.45158 1.694-3.1888 1.694-3.1888zm-4.9113 6.31508h-.1974l.7306-2.57549h.2424l.077-.26532.0074.29504c-.009.18238.1256.34406.4792.31729h.409l.1407-.49593h-.1539c-.0884 0-.1295-.02381-.1244-.07485l-.0074-.30018h-.7574v.00156c-.2448.00545-.976.02505-1.1241.06707-.1791.04917-.3679.19389-.3679.19389l.0742-.26563h-.7085l-.1476.52706-.7404 2.61489h-.1437l-.1409.4924h1.4111l-.0474.1641h.6953l.0462-.1641h.195zm-.5789-2.05217c-.1135.03346-.3246.13487-.3246.13487l.1878-.65819h.5628l-.1357.47959s-.1739.0109-.2903.04373zm.0108.94037s-.1768.0236-.2932.0517c-.1146.037-.3295.1537-.3295.1537l.1939-.685h.5658zm-.3154 1.1179h-.5646l.1637-.5781h.5628zm1.3597-1.5975h.8139l-.117.4037h-.8246l-.1238.4413h.7215l-.5463.8199c-.0383.0602-.0726.0815-.1107.0985-.0383.0207-.0885.045-.1466.045h-.2002l-.1375.4833h.5236c.2721 0 .4329-.132.5516-.3052l.3747-.5465.0804.5549c.0171.104.0872.1648.1346.1885.0524.028.1066.0761.1831.0832.0821.0038.1414.0067.1808.0067h.2572l.1545-.5409h-.1014c-.0583 0-.1586-.0104-.1757-.0299-.0171-.0236-.0171-.06-.0263-.1154l-.0816-.5562h-.3342l.1466-.1859h.823l.1266-.4413h-.762l.1187-.4037h.7597l.1409-.4978h-2.2649zm-6.8738 1.7099.19-.6735h.7807l.1426-.5009h-.7814l.1193-.4145h.7636l.1415-.4851h-1.9107l-.1385.4851h.434l-.1157.4145h-.4353l-.14425.5095h.43395l-.2532.891c-.0342.118.0161.1629.0479.2177.0326.0534.0656.0887.1397.1088.0765.0182.129.0291.2002.0291h.8801l.1569-.5549-.3902.0571c-.0753 0-.284-.0097-.2612-.0839zm.0896-3.22408-.1979.38109c-.0423.08325-.0804.13492-.1147.15872-.0303.02008-.0901.02848-.1769.02848h-.1032l-.138.48753h.3429c.1648 0 .2914-.06442.3518-.09663.065-.03704.0821-.01587.1323-.06754l.1158-.1069h1.0705l.1421-.50761h-.7836l.1368-.27714zm1.5804 3.23388c-.0182-.028-.0051-.0773.0228-.18l.2926-1.0322h1.0409c.1517-.0024.2612-.0042.3325-.0097.0765-.0085.1597-.0376.2504-.0899.0935-.0548.1414-.1125.1819-.1788.0451-.0661.1175-.2109.1797-.434l.3678-1.30622-1.0802.00669s-.3326.05229-.479.11002c-.1478.06443-.3589.24431-.3589.24431l.0975-.35806h-.6672l-.9342 3.30196c-.0331.1282-.0553.2212-.0605.2771-.0017.0602.0713.1198.1186.1648.0559.045.1386.0377.2179.045.0833.0067.2019.0109.3656.0109h.5128l.1574-.5665-.4591.0463c-.0491 0-.0845-.0281-.0993-.0517zm.5042-1.9094h1.0933l-.0695.2322c-.0098.0055-.0331-.0115-.1444.0025h-.9467zm.219-.77864h1.1025l-.0793.27963s-.5196-.00545-.6028.01089c-.3662.06754-.5801.27602-.5801.27602zm.8293 1.78834c-.0091.0347-.0234.0559-.0434.0717-.0222.0153-.0581.0207-.1117.0207h-.1558l.0092-.2827h-.648l-.0263 1.3823c-.001.0997.0081.1575.0766.2037.0684.0577.2794.065.5634.065h.4061l.1465-.5174-.3534.0207-.1176.0073c-.016-.0073-.0314-.014-.0485-.0322-.0148-.0157-.04-.0061-.0359-.1058l.0028-.3543.3707-.0164c.2002 0 .2858-.0694.3588-.1355.0696-.0633.0924-.1362.1187-.2347l.0622-.3137h-.5095z" fill="#fefefe"/></svg>

<svg width="24" height="16" viewBox="0 0 24 16" fill="none" xmlns="http://www.w3.org/2000/svg">
<path d="M4.70006 6.10352e-05H10.6904C11.5265 6.10352e-05 12.0466 0.726457 11.8516 1.6206L9.06265 14.382C8.86583 15.273 8.02862 16.0001 7.19184 16.0001H1.20213C0.367103 16.0001 -0.154148 15.273 0.0409199 14.382L2.831 1.6206C3.02607 0.726457 3.86284 6.10352e-05 4.70006 6.10352e-05Z" fill="#DD2423"/>
<path d="M10.192 6.10352e-05H17.0807C17.9167 6.10352e-05 17.5397 0.726457 17.3431 1.6206L14.5546 14.382C14.3589 15.273 14.42 16.0001 13.5822 16.0001H6.69348C5.85568 16.0001 5.3372 15.273 5.53402 14.382L8.32235 1.6206C8.52034 0.726457 9.35536 6.10352e-05 10.192 6.10352e-05Z" fill="#16315E"/>
<path d="M16.8074 6.10352e-05H22.7977C23.6351 6.10352e-05 24.1552 0.726457 23.9585 1.6206L21.17 14.382C20.9732 15.273 20.1354 16.0001 19.2982 16.0001H13.3107C12.4729 16.0001 11.9532 15.273 12.1495 14.382L14.9384 1.6206C15.1334 0.726457 15.9696 6.10352e-05 16.8074 6.10352e-05Z" fill="#036862"/>
<path d="M6.26455 4.08973C5.64854 4.09642 5.46661 4.08973 5.4085 4.0751C5.38616 4.18823 4.97047 6.23188 4.9693 6.2336C4.8798 6.64706 4.81468 6.94178 4.59348 7.1321C4.46791 7.24274 4.32132 7.29611 4.15136 7.29611C3.87818 7.29611 3.71903 7.15155 3.69231 6.87736L3.6872 6.78322C3.6872 6.78322 3.77043 6.22939 3.77043 6.22628C3.77043 6.22628 4.2067 4.36392 4.28482 4.11774C4.2889 4.10374 4.29007 4.09642 4.29109 4.08973C3.44191 4.09767 3.29137 4.08973 3.28101 4.0751C3.27531 4.09518 3.25429 4.21064 3.25429 4.21064L2.80881 6.30969L2.77056 6.48771L2.69653 7.07001C2.69653 7.24274 2.72836 7.38372 2.79173 7.50292C2.99468 7.8809 3.57361 7.93754 3.90111 7.93754C4.32307 7.93754 4.7189 7.842 4.98639 7.66756C5.4507 7.37516 5.57217 6.91813 5.68051 6.51198L5.73074 6.30362C5.73074 6.30362 6.18015 4.36937 6.25652 4.11774C6.25944 4.10374 6.26061 4.09642 6.26455 4.08973ZM7.79365 5.65011C7.68531 5.65011 7.48733 5.67812 7.30949 5.77102C7.24495 5.80635 7.18392 5.84712 7.11953 5.88773L7.17764 5.66412L7.14581 5.62646C6.76867 5.70785 6.68428 5.71874 6.3359 5.77102L6.3067 5.79172C6.26626 6.14916 6.23034 6.4179 6.08039 7.12049C6.0233 7.37943 5.96402 7.64085 5.90459 7.89917L5.92065 7.932C6.27765 7.91193 6.38598 7.91193 6.69625 7.91738L6.72137 7.88828C6.76079 7.67307 6.7659 7.62265 6.85321 7.18678C6.89424 6.98013 6.9798 6.52605 7.022 6.36437C7.09953 6.32609 7.17604 6.28843 7.24904 6.28843C7.42294 6.28843 7.40177 6.45011 7.39505 6.51454C7.3876 6.62269 7.32424 6.97593 7.25926 7.27921L7.2159 7.47497C7.18567 7.61954 7.15253 7.76005 7.1223 7.90337L7.13545 7.932C7.48733 7.91193 7.59464 7.91193 7.89513 7.91738L7.93046 7.88828C7.98478 7.55216 8.00069 7.46221 8.09706 6.97281L8.14553 6.74795C8.23971 6.30788 8.28702 6.08474 8.21576 5.90298C8.14042 5.69929 7.95967 5.65011 7.79365 5.65011ZM9.50184 6.11086C9.3148 6.14914 9.19551 6.17466 9.07695 6.19116C8.95942 6.21123 8.8448 6.22944 8.66404 6.25621L8.64973 6.27006L8.63659 6.2811C8.61776 6.42458 8.60461 6.5486 8.57965 6.69441C8.55848 6.8452 8.52592 7.01652 8.47291 7.2627C8.43189 7.45115 8.41071 7.51682 8.38735 7.58311C8.36458 7.6494 8.33946 7.71382 8.29332 7.89915L8.30413 7.91627L8.31318 7.93199C8.48211 7.92343 8.59264 7.91736 8.70624 7.91627C8.81968 7.91191 8.93722 7.91627 9.11915 7.91736L9.13506 7.90351L9.15215 7.88826C9.17843 7.72113 9.18237 7.67616 9.19843 7.59462C9.21435 7.50717 9.2418 7.3861 9.30911 7.06274C9.34094 6.91086 9.37642 6.75945 9.40941 6.60446C9.44373 6.4501 9.47964 6.29807 9.51381 6.14619L9.5087 6.12783L9.50184 6.11086ZM9.50582 5.48963C9.33587 5.38273 9.03757 5.41665 8.83681 5.56432C8.63663 5.70904 8.61386 5.91445 8.78323 6.02276C8.95026 6.12671 9.24972 6.09574 9.44873 5.94682C9.64847 5.79899 9.67344 5.59545 9.50582 5.48963ZM10.5337 7.96549C10.8775 7.96549 11.23 7.8645 11.4953 7.56479C11.6994 7.32173 11.793 6.96008 11.8254 6.81116C11.931 6.31756 11.8488 6.0871 11.7455 5.94674C11.5887 5.73277 11.3116 5.66415 11.0241 5.66415C10.8512 5.66415 10.4395 5.68236 10.1178 5.9984C9.88683 6.22637 9.7801 6.53573 9.71571 6.83233C9.65074 7.13452 9.57598 7.67854 10.0454 7.88099C10.1902 7.94729 10.399 7.96549 10.5337 7.96549ZM10.5068 6.85489C10.5861 6.48111 10.6797 6.1674 10.9185 6.1674C11.1057 6.1674 11.1193 6.40082 11.0361 6.77584C11.0212 6.85909 10.9528 7.1686 10.8604 7.30041C10.7959 7.39766 10.7195 7.45664 10.6351 7.45664C10.61 7.45664 10.4606 7.45664 10.4583 7.22027C10.4571 7.10356 10.4795 6.98436 10.5068 6.85489ZM12.6849 7.91742L12.7118 7.88832C12.7499 7.67311 12.7562 7.62254 12.8406 7.18683C12.8828 6.98017 12.9701 6.5261 13.0111 6.36442C13.0888 6.32598 13.164 6.28832 13.2393 6.28832C13.4121 6.28832 13.391 6.45 13.3842 6.51443C13.3779 6.62273 13.3145 6.97582 13.2484 7.2791L13.2074 7.47486C13.176 7.61958 13.1418 7.75994 13.1116 7.90342L13.1247 7.93205C13.4778 7.91198 13.581 7.91198 13.8832 7.91742L13.9197 7.88832C13.9727 7.55205 13.987 7.4621 14.0863 6.97286L14.1336 6.74785C14.2283 6.30778 14.2761 6.08478 14.2061 5.90303C14.1285 5.69933 13.9466 5.65016 13.7829 5.65016C13.6744 5.65016 13.4754 5.67801 13.2986 5.77107C13.2354 5.80639 13.172 5.84701 13.1098 5.88778L13.164 5.66417L13.1349 5.62635C12.7579 5.70789 12.6718 5.71879 12.3239 5.77107L12.2971 5.79177C12.2549 6.14921 12.2206 6.41779 12.0707 7.12054C12.0136 7.37947 11.9543 7.6409 11.895 7.89922L11.911 7.93205C12.2685 7.91198 12.3753 7.91198 12.6849 7.91742ZM15.2789 7.93197C15.3011 7.81651 15.4329 7.13213 15.4341 7.13213C15.4341 7.13213 15.5464 6.62997 15.5532 6.61176C15.5532 6.61176 15.5885 6.55948 15.6239 6.53878H15.6759C16.1663 6.53878 16.7201 6.53878 17.1542 6.19846C17.4496 5.96504 17.6515 5.62036 17.7416 5.20145C17.765 5.09875 17.7822 4.97659 17.7822 4.85444C17.7822 4.694 17.752 4.53528 17.6646 4.41126C17.4433 4.0812 17.0025 4.07514 16.4937 4.07265C16.492 4.07265 16.2428 4.07514 16.2428 4.07514C15.5915 4.08369 15.3303 4.0812 15.2229 4.0672C15.2139 4.11777 15.1968 4.20772 15.1968 4.20772C15.1968 4.20772 14.9635 5.36018 14.9635 5.36204C14.9635 5.36204 14.4051 7.81231 14.3789 7.92777C14.9476 7.92046 15.1807 7.92046 15.2789 7.93197ZM15.7112 5.88474C15.7112 5.88474 15.9593 4.73462 15.9581 4.73898L15.9661 4.68L15.9696 4.63503L16.0688 4.64592C16.0688 4.64592 16.5804 4.69276 16.5924 4.694C16.7943 4.77726 16.8775 4.99184 16.8194 5.27195C16.7664 5.52793 16.6106 5.74314 16.4104 5.84709C16.2456 5.93516 16.0437 5.94248 15.8356 5.94248H15.701L15.7112 5.88474ZM17.2557 6.87619C17.1902 7.17403 17.1148 7.71805 17.5819 7.91195C17.7308 7.97948 17.8643 7.99956 17.9999 7.99224C18.1432 7.98399 18.2759 7.90743 18.3988 7.79726C18.3877 7.84254 18.3766 7.88783 18.3655 7.93326L18.3867 7.96236C18.7227 7.94727 18.8269 7.94727 19.1909 7.95023L19.2239 7.92346C19.2771 7.59045 19.3272 7.26709 19.4653 6.63002C19.5326 6.32486 19.5998 6.02266 19.6688 5.71875L19.658 5.6853C19.2822 5.75952 19.1817 5.7754 18.8202 5.83002L18.7928 5.85382C18.7891 5.88479 18.7853 5.91451 18.7818 5.94424C18.7256 5.84744 18.6441 5.76482 18.5184 5.71331C18.3577 5.64593 17.9801 5.73276 17.6555 6.04772C17.4274 6.27258 17.3179 6.58069 17.2557 6.87619ZM18.0451 6.8944C18.1255 6.52731 18.2179 6.21671 18.4574 6.21671C18.6088 6.21671 18.6885 6.36563 18.6723 6.61959C18.6595 6.68292 18.6456 6.74968 18.6291 6.82515C18.6051 6.93424 18.5792 7.04239 18.5539 7.15069C18.5282 7.22476 18.4983 7.29463 18.4654 7.34116C18.4038 7.43422 18.2572 7.49195 18.1728 7.49195C18.1489 7.49195 18.0011 7.49195 17.996 7.25978C17.9948 7.14416 18.0172 7.02511 18.0451 6.8944ZM22.167 5.68232L22.1379 5.647C21.766 5.7273 21.6987 5.74006 21.357 5.78923L21.3319 5.816C21.3308 5.82035 21.3297 5.82704 21.328 5.83311L21.3268 5.82704C21.0725 6.45245 21.0799 6.31753 20.8729 6.80989C20.8717 6.78748 20.8717 6.77347 20.8705 6.74967L20.8187 5.68232L20.7862 5.647C20.3966 5.7273 20.3874 5.74006 20.0276 5.78923L19.9996 5.816C19.9957 5.82876 19.9957 5.84276 19.9933 5.85801L19.9957 5.86346C20.0406 6.10839 20.0298 6.05377 20.0749 6.44031C20.096 6.63 20.124 6.82078 20.145 7.00814C20.1805 7.3217 20.2004 7.47606 20.2437 7.95457C20.0008 8.38188 19.9432 8.54356 19.7093 8.91858L19.7109 8.92232L19.5462 9.19993C19.5274 9.22918 19.5103 9.24926 19.4864 9.25782C19.4601 9.27167 19.4259 9.27416 19.3785 9.27416H19.2872L19.1516 9.755L19.6169 9.76355C19.8901 9.76231 20.0618 9.62615 20.1542 9.44315L20.4468 8.90878H20.4422L20.473 8.87112C20.6698 8.41954 22.167 5.68232 22.167 5.68232ZM17.2557 11.9974H17.0583L17.7889 9.42191H18.0313L18.1083 9.15659L18.1157 9.45163C18.1067 9.63401 18.2413 9.79569 18.5949 9.76892H19.0039L19.1446 9.27299H18.9907C18.9023 9.27299 18.8612 9.24918 18.8663 9.19814L18.8589 8.89796H18.1015V8.89952C17.8567 8.90497 17.1255 8.92457 16.9774 8.96659C16.7983 9.01576 16.6095 9.16048 16.6095 9.16048L16.6837 8.89485H15.9752L15.8276 9.42191L15.0872 12.0368H14.9435L14.8026 12.5292H16.2137L16.1663 12.6933H16.8616L16.9078 12.5292H17.1028L17.2557 11.9974ZM16.6768 9.94523C16.5633 9.97869 16.3522 10.0801 16.3522 10.0801L16.54 9.42191H17.1028L16.9671 9.9015C16.9671 9.9015 16.7932 9.9124 16.6768 9.94523ZM16.6876 10.8856C16.6876 10.8856 16.5108 10.9092 16.3944 10.9373C16.2798 10.9743 16.0649 11.091 16.0649 11.091L16.2588 10.406H16.8246L16.6876 10.8856ZM16.3722 12.0035H15.8076L15.9713 11.4254H16.5341L16.3722 12.0035ZM17.7319 10.406H18.5458L18.4288 10.8097H17.6042L17.4804 11.251H18.2019L17.6556 12.0709C17.6173 12.1311 17.583 12.1524 17.5449 12.1694C17.5066 12.1901 17.4564 12.2144 17.3983 12.2144H17.1981L17.0606 12.6977H17.5842C17.8563 12.6977 18.0171 12.5657 18.1358 12.3925L18.5105 11.846L18.5909 12.4009C18.608 12.5049 18.6781 12.5657 18.7255 12.5894C18.7779 12.6174 18.8321 12.6655 18.9086 12.6726C18.9907 12.6764 19.05 12.6793 19.0894 12.6793H19.3466L19.5011 12.1384H19.3997C19.3414 12.1384 19.2411 12.128 19.224 12.1085C19.2069 12.0849 19.2069 12.0485 19.1977 11.9931L19.1161 11.4369H18.7819L18.9285 11.251H19.7515L19.8781 10.8097H19.1161L19.2348 10.406H19.9945L20.1354 9.9082H17.8705L17.7319 10.406ZM10.8581 12.1159L11.0481 11.4424H11.8288L11.9714 10.9415H11.19L11.3093 10.527H12.0729L12.2144 10.0419H10.3037L10.1652 10.527H10.5992L10.4835 10.9415H10.0482L9.90395 11.451H10.3379L10.0847 12.342C10.0505 12.46 10.1008 12.5049 10.1326 12.5597C10.1652 12.6131 10.1982 12.6484 10.2723 12.6685C10.3488 12.6867 10.4013 12.6976 10.4725 12.6976H11.3526L11.5095 12.1427L11.1193 12.1998C11.044 12.1998 10.8353 12.1901 10.8581 12.1159ZM10.9477 8.89182L10.7498 9.27291C10.7075 9.35616 10.6694 9.40783 10.6351 9.43163C10.6048 9.45171 10.545 9.46011 10.4582 9.46011H10.355L10.217 9.94764H10.5599C10.7247 9.94764 10.8513 9.88322 10.9117 9.85101C10.9767 9.81397 10.9938 9.83514 11.044 9.78347L11.1598 9.67657H12.2303L12.3724 9.16896H11.5888L11.7256 8.89182H10.9477ZM12.5281 12.1257C12.5099 12.0977 12.523 12.0484 12.5509 11.9457L12.8435 10.9135H13.8844C14.0361 10.9111 14.1456 10.9093 14.2169 10.9038C14.2934 10.8953 14.3766 10.8662 14.4673 10.8139C14.5608 10.7591 14.6087 10.7014 14.6492 10.6351C14.6943 10.569 14.7667 10.4242 14.8289 10.2011L15.1967 8.89488L14.1165 8.90157C14.1165 8.90157 13.7839 8.95386 13.6375 9.01159C13.4897 9.07602 13.2786 9.2559 13.2786 9.2559L13.3761 8.89784H12.7089L11.7747 12.1998C11.7416 12.328 11.7194 12.421 11.7142 12.4769C11.7125 12.5371 11.7855 12.5967 11.8328 12.6417C11.8887 12.6867 11.9714 12.6794 12.0507 12.6867C12.134 12.6934 12.2526 12.6976 12.4163 12.6976H12.9291L13.0865 12.1311L12.6274 12.1774C12.5783 12.1774 12.5429 12.1493 12.5281 12.1257ZM13.0323 10.2163H14.1256L14.0561 10.4485C14.0463 10.454 14.023 10.437 13.9117 10.451H12.965L13.0323 10.2163ZM13.2513 9.43766H14.3538L14.2745 9.71729C14.2745 9.71729 13.7549 9.71184 13.6717 9.72818C13.3055 9.79572 13.0916 10.0042 13.0916 10.0042L13.2513 9.43766ZM14.0806 11.226C14.0715 11.2607 14.0572 11.2819 14.0372 11.2977C14.015 11.313 13.9791 11.3184 13.9255 11.3184H13.7697L13.7789 11.0357H13.1309L13.1046 12.418C13.1036 12.5177 13.1127 12.5755 13.1812 12.6217C13.2496 12.6794 13.4606 12.6867 13.7446 12.6867H14.1507L14.2972 12.1693L13.9438 12.19L13.8262 12.1973C13.8102 12.19 13.7948 12.1833 13.7777 12.1651C13.7629 12.1494 13.7377 12.159 13.7418 12.0593L13.7446 11.705L14.1153 11.6886C14.3155 11.6886 14.4011 11.6192 14.4741 11.5531C14.5437 11.4898 14.5665 11.4169 14.5928 11.3184L14.655 11.0047H14.1455L14.0806 11.226Z" fill="#FEFEFE"/>
</svg>
